X: 4133
T: The AULD KIRK
R: Strathspey.
%R: strathspey
B: James Kerr "Merry Melodies" v.4 p.16 #133
Z: 2016 John Chambers <jc:trillian.mit.edu>
M: C
L: 1/8
K: G
|:\
g>ed>B (c<e) d2 | c>BA>G F<A F<D |\
g>fe>d (e<g) d2 | c<A d>B G3 d :|
|:\
B<G G>A B<d d>B | c>BA>G F<A F<D |\
B<G G>A B<d d>g |[1 c<A d>B G3 d :|[2 (3efg (3fga g3 z |]

%%sep 1 1 500
%%sep 1 1 500

